X:1
T:SKYRIM.
T:Jeremy Soule.
T:transcribed by Peri Entree.
T:The Elder Scrolls V.
%%score { ( 1 3 ) | ( 2 4 ) }
L:1/8
Q:1/4=100
M:12/8
K:D
V:1 treble nm="Piano."
V:3 treble 
V:2 bass 
V:4 bass 
V:1
"^100 BPM." z12 | z12 | [F,B,]B,B, [G,B,]B,B, [A,B,]B,B, B,B,C/D/ | %3
 [F,B,]B,B, [G,B,]B,B, [A,B,]B,B, B,B,C/D/ | [F,B,]B,B, [G,B,]B,B, [A,B,]B,B, B,B,C/D/ | %5
 [F,B,]B,B, [G,B,]B,B, [A,B,]B,B, C/D/B,C/D/ | B,6 E6 | B6 A6 | B,6 [E,E]6 | %9
 [DGB]6 [EAc]4- [EAc][Dd]/[Cc]/ | %10
 [Dd]2 [Dd]/[Cc]/ [Dd]2 [Cc]/[Dd]/ [Ee][Dd][Cc] [B,B]2 [B,B]/[A,A]/ | %11
 [B,B]2 [B,B]/[A,A]/ [B,B]2 [A,A]/[B,B]/ [Cc][Dd][A,A] [B,B]2 [Dd]/[Cc]/ | %12
 [Dd][Dd][Dd]/[Cc]/ [Dd]2 [Cc]/[Dd]/ [Ee][Dd][Cc] [B,B]2 [B,B]/[A,A]/ | %13
 [B,B]2 [B,B]/[A,A]/ [B,B]2 [A,A]/[B,B]/ [Cc][Dd][A,A] [B,B]3 | %14
"^Crossovers here." [Ff]>[Ff][Ff] [Ee][Ee][Ee] [Dd]>[Dd][Dd] [Cc][Cc][Cc] | %15
 [Ff]>[Ff][Ff] [Ee][Ee][Ee] [Dd]>[Dd][Dd] [Cc][Cc][Cc] | %16
 [Ff]>[Ff][Ff] [Ee][Ee][Ee] [Dd]>[Dd][Dd] [Cc][Cc][Cc] | %17
 [Ff]>[Ff][Ff] [Ff][Ff][Ff] [Ff]>[Ff][Ff] [Ff][Ff][Ff] | [F,F]2 B, [F,F]2 B, [F,F]2 B, [F,F]3 | %19
 [F,F]2 B, [F,F]2 B, [F,F]2 B, [F,F]3 | d3 c3 B6 | c6 A3 c3 | [Fd]3 [Ec]3 [DB]6 | %23
 [Ae]6 [Af]3 [Ae]3 | [F,B,]3 [F,B,C]3 [F,B,D]6 | [E,A,B,C]6 [E,A,B,]3 [E,A,B,C]3 | %26
 [B,D]3 [CE]3 [B,DF]6 | [A,CF]6 [CFA]3 [CFAc]3 | BB/B/B/B/ [GB]B/B/[GB]/B/ [AB]B[AB] [EB]B[EB] | %29
 BB/B/B/B/ [GB]B/B/[GB]/B/ [AB]B[AB] [EB]B[EB] | %30
 [Bd][Bd]/[Bd]/[Bd]/[Bd]/ [Bd][Bd]/[Bd]/[Bd]/[Bd]/ [Ac][Ac][Ac] [EB][EB][EB] | %31
 [Bd][Bd]/[Bd]/[Bd]/[Bd]/ [Bd][Bd]/[Bd]/[Bd]/[Bd]/ [Ac][Ac]/[Ac]/[Ac] [EB][B,B][Cc] | %32
 [DFd]4 [Dd][Ee] [FAf]4 [Ff][Aa] | [EAce]4 [Dd][Cc] [B,E^GB]4 [B,B][Cc] | %34
 [DFd]4 [Dd][Ee] [FAf]4 [Ff][Aa] | [Bdgb]4 [Aa][cc'] [Be^gb]4 [B,B][Cc] | %36
 [Dd]2 [Cc]2 [B,B]2 [A,A]2 [G,G]2 [F,F]2 | [E,E]4 [D,D][F,F] [E,E]4- [E,E][Dd]/[Cc]/ | %38
 [DFd]2 [Dd]/[Cc]/ [DGd]2 [Cc]/[Dd]/ [EAe][Dd][Cc] [B,B]2 [B,B]/[A,A]/ | %39
 [B,DB]2 [B,B]/[A,A]/ [B,EB]2 [A,A]/[B,B]/ [CFc][Dd][A,A] [B,B]2 [Dd]/[Cc]/ | %40
 [DFd][DFd][Dd]/[Cc]/ [DGd]2 [Cc]/[Dd]/ [EAe][Dd][Cc] [B,B]2 [B,B]/[A,A]/ | %41
 [B,DB]2 [B,B]/[A,A]/ [B,EB]2 [A,A]/[B,B]/ [CFc][Dd][A,A] [B,B]3 | %42
 [FBf]2 [B,B] [FBf]2 [B,B] [FBf]2 [B,B] [FBf]2 [B,B] | %43
 [FBf]2 [B,B] [FBf]2 [B,B] [FBf]2 [B,B] [FBf]2 [B,B] | [B,DFB]12- | [B,DFB]12 |] %46
V:2
 [B,,,,B,,,]4- [B,,,,B,,,][B,,,,B,,,] [B,,,,B,,,]6 | %1
 [B,,,,B,,,]4- [B,,,,B,,,][B,,,,B,,,] [B,,,,B,,,]6 | B,,,3 G,,,3 A,,,3 E,,,3 | %3
 B,,,3 G,,,3 A,,,3 E,,,3 | B,,,3 G,,,3 A,,,3 E,,,3 | B,,,3 G,,,3 A,,,3 E,,,3 | B,,,3 B,,,3 E,,,6 | %7
 B,,,3 B,,,3 A,,,6 | [B,,,B,,]3 [B,,,B,,]3 [E,,,E,,]6 | [G,,,G,,]3 [G,,,G,,]3 [A,,,A,,]6 | %10
 [B,,B,]3 [G,,G,]3 [A,,A,]3 [E,,E,]3 | [G,,G,]3 [E,,E,]3 [A,,A,]3 [B,,B,]3 | %12
 [B,,B,]3 [G,,G,]3 [A,,A,]3 [E,,E,]3 | [G,,G,]3 [E,,E,]3 [A,,A,]3 [B,,B,]3 | %14
 z4 [B,,B,][C,C] [D,D]4 [D,D][E,E] | [F,F]4 [F,F][A,A] [E,E]4 [D,D][C,C] | %16
 [B,,B,]4 [B,,B,][C,C] [D,D]4 [F,F][A,A] | [B,B]4 [A,A][Cc] [B,B]3 [B,B]3 | %18
 B,,3 B,,3 [B,,,F,,B,,]3 B,,2 B,, | B,,3 B,,3 [B,,,F,,B,,]3 B,,2 B,, | B,,6 B,,6 | A,,6 A,,6 | %22
 B,,6 B,,6 | A,,6 A,,6 | B,,,12 | A,,,12 | B,,,6 B,,,6 | %27
 [F,,F,]>[F,,F,][F,,F,] [F,,F,][F,,F,][F,,F,] [F,,F,][F,,F,][F,,F,] [F,,F,][F,,F,][F,,F,] | %28
 [B,,B,]2 [B,,B,] [G,,G,]2 [G,,G,] [A,,A,]2 [A,,A,] [E,,E,]2 [E,,E,] | %29
 [B,,B,]2 [B,,B,] [G,,G,]2 [G,,G,] [A,,A,]2 [A,,A,] [E,,E,]2 [E,,E,] | %30
 [B,,,B,,]2 [B,,,B,,] [G,,,G,,]2 [G,,,G,,] [A,,,A,,]2 [A,,,A,,] [E,,,E,,]2 [E,,,E,,] | %31
 [B,,,B,,D,]2 [B,,,B,,D,] [G,,,G,,D,]2 [G,,,G,,D,] [A,,,A,,C,]2 [A,,,A,,C,] [E,,,E,,B,,]2 [E,,,E,,B,,] | %32
 B,,,6 D,,6 | A,,,6 E,,,6 | B,,,6 D,,6 | G,,6 E,,6 | %36
 [B,,,B,,]3/2[B,,,B,,]3/2 [B,,,B,,]2 [B,,,B,,] [D,,D,]3/2[D,,D,]3/2 [D,,D,]2 [D,,D,] | %37
 [G,,,G,,]>[G,,,G,,][G,,,G,,] [G,,,G,,][G,,,G,,][G,,,G,,] [A,,,A,,]>[A,,,A,,][A,,,A,,] [A,,,A,,][A,,,A,,][A,,,A,,] | %38
 [B,,D,F,B,] [B,,,B,,]2 [G,,B,,D,G,] [G,,,G,,]2 [A,,C,E,A,] [A,,,A,,]2 [E,,G,,B,,E,] [E,,,E,,]2 | %39
 [G,,B,,D,G,] [G,,,G,,]2 [E,,G,,B,,E,] [E,,,E,,]2 [F,,A,,C,F,] [F,,,F,,]2 [B,,D,F,B,] [B,,,B,,]2 | %40
 [B,,D,F,B,] [B,,,B,,]2 [G,,B,,D,G,] [G,,,G,,]2 [A,,C,E,A,] [A,,,A,,]2 [E,,G,,B,,E,] [E,,,E,,]2 | %41
 [G,,B,,D,G,] [G,,,G,,]2 [E,,G,,B,,E,] [E,,,E,,]2 [F,,A,,C,F,] [F,,,F,,]2 [B,,D,F,B,][B,,,B,,][B,,,B,,] | %42
 [B,,,B,,]2 [B,,,B,,] [B,,,B,,]2 [B,,,B,,] [G,,,G,,]2 [G,,,G,,] [G,,,G,,]2 [G,,,G,,] | %43
 [B,,,B,,]2 [B,,,B,,] [B,,,B,,]2 [B,,,B,,] [G,,,G,,]2 [G,,,G,,] [G,,,G,,]2 [G,,,G,,] | %44
 [B,,,B,,]4- [B,,,B,,][B,,,,B,,,] [B,,,,B,,,]6 | %45
 [B,,,,B,,,]4- [B,,,,B,,,][B,,,,B,,,] [B,,,,B,,,]6 |] %46
V:3
 x12 | x12 | x12 | x12 | x12 | x12 | F,F,F, F,F,F, B,B,B, B,B,B, | B,B,B, B,B,B, B,B,B, B,B,B, | %8
 F,F,F, F,F,F, B,B,B, B,B,B, | B,B,B, B,B,B, B,B,B, B,B, z | x12 | x12 | x12 | x12 | x12 | x12 | %16
 x12 | x12 | x12 | x12 | x12 | x12 | x12 | x12 | x12 | x12 | x12 | x12 | x12 | x12 | x12 | x12 | %32
 x12 | x12 | x12 | x12 | x12 | x12 | x12 | x12 | x12 | x12 | x12 | x12 | x12 | x12 |] %46
V:4
 x12 | x12 | x12 | x12 | x12 | x12 | x12 | x12 | x12 | x12 | x12 | x12 | x12 | x12 | x12 | x12 | %16
 x12 | x12 | x12 | x12 | z D,F, B,F,D, z D,F, B,F,D, | z C,E, A,E,C, z C,E, A,E,C, | %22
 z D,F, B,F,D, z D,F, B,F,D, | z C,E, A,E,C, z C,E, A,E,C, | %24
 B,,>B,,B,, B,,>B,,B,, B,,>B,,B,, B,,B,,B,, | A,,>A,,A,, A,,A,,A,, A,,>A,,A,, A,,>A,,A,, | %26
 B,,>B,,B,, B,,>B,,B,, B,,>B,,B,, B,,B,,B,, | x12 | x12 | x12 | x12 | x12 | %32
 [F,,D,]>[F,,D,][F,,D,] [F,,D,][F,,D,][F,,D,] [A,,F,]>[A,,F,][A,,F,] [A,,F,][A,,F,][A,,F,] | %33
 [E,,C,]>[E,,C,][E,,C,] [E,,C,][E,,C,][E,,C,] [B,,,^G,,]>[B,,,G,,][B,,,G,,] [B,,,G,,][B,,,G,,][B,,,G,,] | %34
 [F,,D,]>[F,,D,][F,,D,] [F,,D,][F,,D,][F,,D,] [A,,F,]>[A,,F,][A,,F,] [A,,F,][A,,F,][A,,F,] | %35
 [D,B,]>[D,B,][D,B,] [D,B,][D,B,][D,B,] [B,,^G,]>[B,,G,][B,,G,] [B,,G,][B,,G,][B,,G,] | x12 | x12 | %38
 x12 | x12 | x12 | x12 | x12 | x12 | x12 | x12 |] %46

